X: 15564
T: Glories Of Spring, The
R: hornpipe
M: 4/4
K: Bminor
|:b,c||d3b, c3e|b,cde FBBc|dB (3B^cB B=AFG|A3f ecce|
d3b, c3e|Bcde FBBc|dBcd B=AFG|AFEc B2:|
|:FG|AB (3AGF DFAc|d3e f2 de|f3g fdBc|dB (3B^cB B=AFG|
AB (3AGF DFAc|d3e f2 de|f3g fdBc|dBcd B2:|

